X: 16120
T: Green Gowned Lass, The
R: reel
M: 4/4
K: Gmajor
c|d2BG AGBG|AGBd BEEE|d2BG ABGB|dega bage|
d2BG AGBG|AGBd BEEE|d2BG ABGB|dega bggf||
gabg ageg|~a3b a2ge|gabg abge|dega bggf|
gabg ageg|~a3b a2ge|gabg abge|dega bage||

